src/assets/icons/toggle-on.svg

<svg viewBox="0 0 640 640" xmlns="http://www.w3.org/2000/svg"><path d="m224 128c-106 0-192 86-192 192s86 192 192 192h192c106 0 192-86 192-192s-86-192-192-192zm192 96c53 0 96 43 96 96s-43 96-96 96-96-43-96-96 43-96 96-96z"/></svg>

<svg xmlns="http://www.w3.org/2000/svg" viewBox="0 0 640 640"><!--!Font Awesome Free 7.0.1 by @fontawesome - https://fontawesome.com License - https://fontawesome.com/license/free Copyright 2025 Fonticons, Inc.--><path d="M224 128C118 128 32 214 32 320C32 426 118 512 224 512L416 512C522 512 608 426 608 320C608 214 522 128 416 128L224 128zM416 224C469 224 512 267 512 320C512 373 469 416 416 416C363 416 320 373 320 320C320 267 363 224 416 224z"/></svg>
